X:1
T:[ID 7-113]
T:[ID 7-113]
T:Bezeichnung standardisiert: Anglaise Angeloise da\ss erste Rep. gilt nicht
T:Urheber unbekannt Datum in der hier transkribierten schriftlichen Quelle: 1776 - 1791
C:Urheber unbekannt
C:Datum in der hier transkribierten schriftlichen Quelle: 1776 - 1791
L:1/8
M:3/8
K:G
V:1 treble 
V:1
 G>AG | (G>F).G | A>cB/d/ | (dc).B | (ag).f | (gd).B | x3/2 x F/ | G2 z ::!p! .A.d.c | _BdG | %10
 .A.c.f | gd_B | .A.d.c | _BdG | Aaf | g2 z ::!f! d2 A/F/ | DFA | .d.f.a | d2 z | d2 A/F/ | %21
 .D.F.A | .d.g.b | d2 z | a2 (f/a/) | c/e/c/A/F | G2 z :| %27

